src/assets/svg/cf.svg

<svg fill="none" height="32" viewBox="0 0 32 32" width="32" xmlns="http://www.w3.org/2000/svg"><g fill="#2196f3"><rect height="32" opacity=".1" rx="8" width="32"/><path d="m9.99961 16.989v-3.495c0-.3003.19999-.4995.50029-.4995h.9997c.3003 0 .5002.1992.5002.4995v3.495h.9998v-3.495c0-.3003.2006-.4995.5002-.4995h1.0005c.2995 0 .4995.1992.4995.4995v3.3903l2.2001-2.2924c.2-.0996.3999-.1992.5999-.0996.1999.0996.3999.2995.3999.5991v1.697l1.3-2.1965c.1003-.1992.3999-.2996.6006-.1992.1992.0996.3999.2995.3999.5991v1.7973l1.4999-2.696c.0996-.1999.3999-.3003.5999-.1999.1999.0996.3999.2995.3999.5991v8.1698c-.0002.0844-.0339.1653-.0936.2249-.0598.0596-.1408.0931-.2252.0931h-13.36249c-.08428 0-.16512-.0334-.22486-.0929-.05973-.0594-.09348-.1401-.09387-.2244v-4.9751c0-.3858.31357-.6987.70018-.6987zm7.29989-3.9945c-.6994 0-1.3-.5991-1.3-1.3981 0-.7991.6006-1.2986 1.3-1.2986.2007 0 .4007 0 .6006.1004.3999-.39994.9001-.59915 1.5-.49954.3999-.59911.9997-.89866 1.5996-.89866 1.1 0 2.0002.89866 2.0002 1.9973-.002.5294-.2133 1.0367-.5879 1.4109-.3747.3742-.8821.585-1.4116.5863-.4006 0-.7009-.1003-1.0005-.2995-.5002.2995-1.3.2995-1.8002 0-.1992.1992-.4995.2995-.9002.2995zm-4.2999 7.4888v-.9982c0-.2996-.1992-.4995-.4995-.4995h-1.0005c-.2996 0-.4995.1999-.4995.4995v.999c0 .2995.1992.4987.4995.4987h1.0005c.2995 0 .4995-.1992.4995-.4987zm4.0004 0v-.9982c0-.2996-.2-.4995-.5003-.4995h-.9997c-.3003 0-.5002.1999-.5002.4995v.999c0 .2995.1999.4987.5002.4987h.9997c.3003 0 .5003-.1992.5003-.4987zm3.9997 0v-.9982c0-.2996-.1992-.4995-.4995-.4995h-1.0012c-.2996 0-.4995.1999-.4995.4995v.999c0 .2995.1992.4987.4995.4987h1.0004c.2996 0 .4995-.1992.4995-.4987z"/></g></svg>

<svg width="32" height="32" viewBox="0 0 32 32" fill="none" xmlns="http://www.w3.org/2000/svg">
<rect opacity="0.1" width="32" height="32" rx="8" fill="#2196F3"/>
<path d="M9.99961 16.989V13.494C9.99961 13.1937 10.1996 12.9945 10.4999 12.9945H11.4996C11.7999 12.9945 11.9998 13.1937 11.9998 13.494V16.989H12.9996V13.494C12.9996 13.1937 13.2002 12.9945 13.4998 12.9945H14.5003C14.7998 12.9945 14.9998 13.1937 14.9998 13.494V16.8843L17.1999 14.5919C17.3999 14.4923 17.5998 14.3927 17.7998 14.4923C17.9997 14.5919 18.1997 14.7918 18.1997 15.0914V16.7884L19.4997 14.5919C19.6 14.3927 19.8996 14.2923 20.1003 14.3927C20.2995 14.4923 20.5002 14.6922 20.5002 14.9918V16.7891L22.0001 14.0931C22.0997 13.8932 22.4 13.7928 22.6 13.8932C22.7999 13.9928 22.9999 14.1927 22.9999 14.4923V22.6621C22.9997 22.7465 22.966 22.8274 22.9063 22.887C22.8465 22.9466 22.7655 22.9801 22.6811 22.9801H9.31861C9.23433 22.9801 9.15349 22.9467 9.09375 22.8872C9.03402 22.8278 9.00027 22.7471 8.99988 22.6628V17.6877C8.99988 17.3019 9.31345 16.989 9.70006 16.989H9.99961ZM17.2995 12.9945C16.6001 12.9945 15.9995 12.3954 15.9995 11.5964C15.9995 10.7973 16.6001 10.2978 17.2995 10.2978C17.5002 10.2978 17.7002 10.2978 17.9001 10.3982C18.3 9.99826 18.8002 9.79905 19.4001 9.89866C19.8 9.29955 20.3998 9 20.9997 9C22.0997 9 22.9999 9.89866 22.9999 10.9973C22.9979 11.5267 22.7866 12.034 22.412 12.4082C22.0373 12.7824 21.5299 12.9932 21.0004 12.9945C20.5998 12.9945 20.2995 12.8942 19.9999 12.695C19.4997 12.9945 18.6999 12.9945 18.1997 12.695C18.0005 12.8942 17.7002 12.9945 17.2995 12.9945ZM12.9996 20.4833V19.4851C12.9996 19.1855 12.8004 18.9856 12.5001 18.9856H11.4996C11.2 18.9856 11.0001 19.1855 11.0001 19.4851V20.4841C11.0001 20.7836 11.1993 20.9828 11.4996 20.9828H12.5001C12.7996 20.9828 12.9996 20.7836 12.9996 20.4841V20.4833ZM17 20.4833V19.4851C17 19.1855 16.8 18.9856 16.4997 18.9856H15.5C15.1997 18.9856 14.9998 19.1855 14.9998 19.4851V20.4841C14.9998 20.7836 15.1997 20.9828 15.5 20.9828H16.4997C16.8 20.9828 17 20.7836 17 20.4841V20.4833ZM20.9997 20.4833V19.4851C20.9997 19.1855 20.8005 18.9856 20.5002 18.9856H19.499C19.1994 18.9856 18.9995 19.1855 18.9995 19.4851V20.4841C18.9995 20.7836 19.1987 20.9828 19.499 20.9828H20.4994C20.799 20.9828 20.9989 20.7836 20.9989 20.4841L20.9997 20.4833Z" fill="#2196F3"/>
</svg>
